X: 015
T: Miss Logan, Ayr, Strathspey
C: attr. John French (1753-1803)
R: strathspey
B: "John French Collection", John French ed. p.1 #5
S: http://www.heallan.com/french.asp
Z: 2012 John Chambers <jc:trillian.mit.edu>
M: C
L: 1/8
K: D
A | FDD>g Tf2d>f | e>fg>f {f}e2E>G | FDD>g Tf2d>f | e<gf<a d2d :|
A | {G}F>DA>D B>DA>D | {G}F>DA>F GEEA | {G}F>DA>D B>DA>D | B<dc<e d2d>A |
    {G}F>DA>D B>DA>D | {G}F>DA>F GEEA | {G}FDAF BGcA | B<dc<e d2d> |]

%%sep 2 1 500
%%sep 1 1 500

